X:52
T:Eva's Polka
K:Am
M:4/4
L:1/4
Z:abc-transcription Josh Larios <hades@elsewhere.org>, 2014.04.15
B:Sarah Comer, Dusty Strings dance band class.
|: "Am"EAA>B | cAA>c | "G"BGGB | "Am"cAA>G |
"Am"EAA>B | cAAc/d/ | "C"ed"G"cB |1 "Am"cAA>G :|2 "Am"cAA ||
|: c/d/ | "C"e>edc | "G"BGGB/c/ | "Dm"d>dcB | "Am"cAAc/d/ |
"C"e>edc | "G"BGGB/c/ | "E7"d>dcB | "Am"cAA :|

